X: 109104
T: LOCHIEL'S RANT
Q:"Reel."
R: Reel.
%R:reel
B: James Kerr "Merry Melodies" v.1 p.9 s.1 #4
Z: 2017 John Chambers <jc:trillian.mit.edu>
M: C
L: 1/8
K: Ador
|: ug |\
eA A/A/A e2dc | BG G/G/G (Bd)dg |\
eA A/A/A e2dc | BGAB ge e :|\
g |\
dega bgab | gd d/d/d (gd)dg |
dega bgab | ge e/e/e (ge)eg |\
dega bgab | gd d/d/d (gd)dg |\
bgae degB | BA A/A/A (ge) e |]

%%sep 1 1 500
%%sep 1 1 500

